X:1
T:Sweetly Sing, Sweetly Sing
T:Sweetly Sing, Sweetly Sing
T:Bradbury’s Golden Chain
T:Julia W. Sampson Haskell, 1861
T:Public Domain Courtesy of the Cyber Hymnal™
C:Bradbury’s Golden Chain
Z:Public Domain
Z:Courtesy of the Cyber Hymnal™
%%score ( 1 2 ) 3
L:1/8
Q:1/4=90
M:2/4
K:G
V:1 treble 
V:2 treble 
V:3 bass 
V:1
 [Bd][GB] [GB]2 | [Ac][FA] [FA]2 | G[FA] [GB][Ac] | [Bd][Bd] [Bd]2 | [Bd][GB] [GB]2 | %5
w: 1.~Sweet- ly sing,|sweet- ly sing,|Prais- es to our|heaven- ly king;|Let us raise,|
w: 2.~An- gels bright,|an- gels bright,|Robed in gar- ments|pure and white,|Chant His praise,|
w: 3.~Far a- way,|far a- way,|We in sin’s dark|val- ley lay;|Je- sus came,|
w: 4.~Now we know—|now we know|We to Heaven must|short- ly go;|Soon the call—|
 [Ac][FA] [FA]2 | G[GB] [Fd][Fd] | [GB]2 z2 | [FA][FA] [FA][FA] | [FA][GB] [Ac]2 | %10
w: let us raise,|High our note of|praise;|Praise to Him whose|name is Love,|
w: chant His praise,|In me- lo- dious|lays;|But from that bright,|hap- py throng,|
w: Je- sus came,|Bless- èd be His|name!|He re- deemed us|by His grace,|
w: soon the call|Comes to one adn|all.|Sav- ior! when our|time shall come,|
 [GB][GB] [GB][GB] | [GB][Ac] !fermata![Bd]2 | [Bd][GB] [GB]2 | [Ac][FA] [FA]2 | G[GB] [Fd][Fd] | %15
w: Praise to Him who|reigns a- bove;|Raise your songs,|raise your songs,|Now with thank- ful|
w: Ne’er can come this|sweet- est song—|Re- deeming love,|re- deeming love,|Brought us here a-|
w: Then pre- pared in|Heaven a place|To re- ceive—|to re- ceive|All who will be-|
w: Take us to our|heaven- ly home,|There we’ll raise|notes of praise,|Through un- end- ing|
 [GB]2 z2 |] %16
w: tongues.|
w: bove.|
w: lieve.|
w: days.|
V:2
 x4 | x4 | G x3 | x4 | x4 | x4 | G x3 | x4 | x4 | x4 | x4 | x4 | x4 | x4 | G x3 | x4 |] %16
V:3
 G,G, G,2 | D,D, D,2 | G,G, G,G, | G,G, G,2 | G,G, G,2 | D,D, D,2 | G,G, D,D, | G,2 z2 | %8
 D,D, D,D, | D,D, D,2 | G,G, G,G, | G,G, !fermata!G,2 | G,G, G,2 | D,D, D,2 | G,G, D,D, | G,2 z2 |] %16

